X:625
T:la Bourre Droie
L:1/8
M:3/8
O:France
R:Bourre
Z:Richard Robinson 
%%TUNEURL: http://www.leeds.ac.uk/music/Info/RRTuneBk/gettune/00000b8c.html
%%ID:00000b8c
K:G
D| GF/G/E/F/| DGB| AcF| AGD| GF/G/E/F/| DGB| AcF| G2 ::
B/c/| ded| A2A/B/| cA/c/A/c/| BGB/c/| ded| A2A/B/| cA/c/A/F/| G2:|
